X:1
T:A minor James P. Carrell, 1821
T:Charles Wesley, 1742 Looking Unto Jesus             76. 76. 78. 76.
T:Broomsgrove
T:Transcribed from Songs of Zion, 1821
%%score [ 1 2 3 4 ]
L:1/8
Q:1/4=80
M:2/2
K:C
V:1 treble nm="Tr." snm="Tr."
V:2 treble nm="C." snm="C."
V:3 treble-8 nm="T." snm="T."
V:4 bass nm="B." snm="B."
V:1
"^Heal  me of  my  grief  and  pain, O   take   my   sins   a– way.""^Lamb of  God  for  sinners slain, To   thee   I   hum–bly    pray,""^1. {" A2 cd e2 e2 | %1
 d2 dc B2 B2 | c2 d2 ed cB |"^}" A8 :| %4
"^From this bondage, Lord, release,  No longer let me be oppressed:" c2 c2 G2 G2 | A2 AB A2 G2 | %6
 c2 c2 d2 de | d2 cd e4 | %8
"^Jes – us,  Master,    seal   my peace,  And  take  me   to    thy     rest." e2 ed c2 A2 | %9
 G2 Ac B2 d2 | e2 A2 GA B2 | A8 |] %12
V:2
"^Wilt   thou   cast  a  sinner out    Who  humbly comes to thee?\nNo, my God, I  cannot  doubt,  Thy    mercy    is     for     me:""^2. {" E2 E2 E2 A2 | %1
 G2 GA G2 E2 | A2 A2 G2 G2 |"^}" A8 :| %4
"^Let me then obtain the grace,  And   be   of  pa–ra–dise   possessed:" A2 A2 G2 G2 | %5
 c2 cB A2 G2 | E2 E2 A2 A2 | G2 A2 E4 | %8
"^Jes – us,  Master,    seal   my peace,  And  take  me   to    thy    breast." A2 E2 A2 A2 | %9
 G2 cA B2 G2 | E2 E2 G2 G2 | A8 |] %12
V:3
"^Worldly  good  I  do  not  want,  Be  that   to   oth–ers     given,\nOn – ly  for  thy   love    I  pant,  My  all  in  earth  and heaven;""^3. {" A2 AG E2 E2 | %1
 G2 GA B2 e2 | c2 A2 GA B2 |"^}" A8 :|"^This the crown I fain would seize," c2 c2 d2 d2 | %5
 e2 ed e2"^The good wherewith I would be blest:" B2 | c2 c2 A2 A2 | d2 c2 B4 | %8
"^Jes – us,  Master,    seal   my peace,  And  take  me   to    thy    breast." A2 A2 c2 c2 | %9
 d2 f2 e2 d2 | e2 e2 dc B2 | A8 |] %12
V:4
"^4. {""^This delight I fain would prove,  And  then  resign  my  breath,\nJoin the happy few, whose love   Was  migh–ti–er than death." A,2 A,B, A,2 E,2 | %1
 C,2 G,F, E,2 E,2 | C,2 D,2 E,2 E,2 |"^}" A,,8 :| %4
"^Let it not my Lord displease,  That  I  would  die  to  be  thy  guest;" C,2 C,2 G,2 G,2 | %5
 E,2 A,G, A,2 E,2 | C,2 C,2 D,2 D,2 | D,2 F,2 E,4 | %8
"^Jes – us,  Master,    seal   my peace,  And  take  me   to    thy    breast." A,2 A,2 E,2 E,2 | %9
"^5. Hast thou not invited all\nWho groan beneath their sin?\nWeary I obey thy call,\nAnd come to be made clean:\nGive my burthen’d conscience ease,\nO grant me now the promis’d rest:\nJesus, Master, seal my peace,\nAnd take me to thy breast.\n6. Full of pain and sin am I,\nI ever bear my shame,\nWaiting till my Lord pass by,\nAnd call me by my name:\nSurely now my pain he sees,\nAnd I shall quickly be releas’d:\nJesus, Master, seal my peace,\nAnd take me to thy breast." G,2 F,2 E,2 D,2 | %10
 C,2 C,2 D,2 E,2 | A,,8 |] %12

